**kern	**kern	**dynam
*part1	*part1	*part1
*staff2	*staff1	*
*I"Piano	*	*
*clefF4	*clefG2	*
*k[b-e-a-]	*k[b-e-a-]	*
=1	=1	=1
4FF 4F	4d 4f 4dd	.
4.AAn 4.An	4.e- 4.f 4.cc	.
8BB- 8B-	8d 8f 8b-	.
=	=	=
4BB- 4B-	4d 4f 4b-	.
2FF 2F	2B- 2d 2a-	.
=	=	=
4EE- 4E-	4G 4B- 4e-	p <
2BBB- 2BB-	2B- 2d 2f	.
=	=	=
4EE- 4E-	4B- 4e- 4g	.
2FF 2F	2B- 2d 2a-	.
=	=	=
4GG 4G	4B- 4e- 4b-	.
2AA- 2A-	2c 2e- 2cc	.
=	=	=
4BB- 4B-	4B- 4d 4f	[
2EE- 2E-	2B- 2e- 2g	.
=	=	=
4GG 4G	4B- 4e- 4b-	<
2AA- 2A-	2c 2e- 2cc	.
=	=	=
*-	*-	*-
!!!system-decoration: {(s1,s2)}
